X:30
T: Ewell hu mir onse Paaá (?), S. 49
N: R0054
O: Luxemburg
S: D'Fraen um Kanddaaf an der aler Zeit, Luxemburg 1929]
R: ??, Walzer]
M: 3/4
L: 1/8
K: G
B2 | B2A2G2 | G2F2E2 | F6- | F2z2
c2 | c2B2A2 | G4A2 | B6- | B2z2
G2 | d2B2B2 | B2B2d2 | c6- | c2z2
ee | e2d2c2 | B2c2A2 | G6- | G2z2
D2 | c4cc | c2B2A2 | B2B2z2 | z4
DD | c4c2 | c2B2A2 | B2B2z2 | z4
GG | e2e2ee | e2e2e2 | d6- | d2z4
d2z2B2 | d2z2B2 | ddcBA2 | G4

